X: 23233
T: Leary's Pound Note
R: polka
M: 2/4
K: Gdorian
|:DG GA|Bc dc|BG GA|BA GF|
DG GA|Bc dc|B/A/G A/G/F|G2 G2:|
|:DG GA|B2 AG|FD DE|FG/F/ EF/E/|
DG GA|B2 AG|FA BA|G2 G2:|

